mimetypes/scalable/application-x-riff.svg

<?xml version="1.0" standalone="no"?><!-- Generator: Gravit.io --><svg xmlns="http://www.w3.org/2000/svg" xmlns:xlink="http://www.w3.org/1999/xlink" style="isolation:isolate" viewBox="0 0 256 256" width="256" height="256"><switch><g><g id="application-mimetype"><g opacity="0.2"><path d=" M 78.924321 15.500025 C 43.627596 15.500025 39.829708 19.125398 40.002695 54.49353 L 40.002695 127.500014 L 40.002695 200.506441 C 39.829708 235.874573 43.627596 239.500004 78.924321 239.500004 L 177.081083 239.500004 C 212.377805 239.500004 216.002702 235.875035 216.002702 200.506441 L 216.002702 127.500014 L 216.002702 54.49353 C 216.002702 19.124994 212.377805 15.500025 177.081083 15.500025 L 78.924321 15.500025 Z " id="path1163" fill="none" vector-effect="non-scaling-stroke" stroke-width="4" stroke="rgb(0,0,0)" stroke-linejoin="miter" stroke-linecap="butt" stroke-miterlimit="4"/></g><defs><filter id="CNNhHAzfNmXTKkoWZw4dbjLCDQvbA0IR" x="-200%" y="-200%" width="400%" height="400%" filterUnits="objectBoundingBox" color-interpolation-filters="sRGB"><feGaussianBlur xmlns="http://www.w3.org/2000/svg" stdDeviation="2.120027"/></filter></defs><g opacity="0.1" filter="url(#CNNhHAzfNmXTKkoWZw4dbjLCDQvbA0IR)"><path d=" M 78.924315 16.5 C 43.627592 16.5 39.82971 20.125416 40.002699 55.493531 L 40.002699 128.5 L 40.002699 201.50647 C 39.82971 236.874573 43.627592 240.500001 78.924315 240.500001 L 177.081083 240.500001 C 212.377806 240.500001 215.084425 236.863068 216.002699 201.50647 L 216.002699 128.5 L 216.002699 55.493531 C 216.002699 20.124997 212.377806 16.5 177.081083 16.5 L 78.924315 16.5 Z " id="shadow" fill="rgb(0,0,0)"/></g><defs><filter id="6kC4BtdZsOa1R1ph6JLQOplD6RlGntfW" x="-200%" y="-200%" width="400%" height="400%" filterUnits="objectBoundingBox" color-interpolation-filters="sRGB"><feGaussianBlur xmlns="http://www.w3.org/2000/svg" stdDeviation="8.4801079"/></filter></defs><g opacity="0.3" filter="url(#6kC4BtdZsOa1R1ph6JLQOplD6RlGntfW)"><linearGradient id="_lgradient_255" x1="-0.0681490711308741" y1="0.03125" x2="0.9537210324437329" y2="1.0531201035746074" gradientTransform="matrix(176.005396,0,0,224,39.997303,16.5)" gradientUnits="userSpaceOnUse"><stop offset="0%" stop-opacity="0.58823532" style="stop-color:rgb(0,0,0)"/><stop offset="88%" stop-opacity="0" style="stop-color:rgb(0,0,0)"/><stop offset="100%" stop-opacity="1" style="stop-color:rgb(0,0,0)"/></linearGradient><path d=" M 78.924315 16.5 C 43.627592 16.5 39.82971 20.125416 40.002699 55.493531 L 40.002699 128.5 L 40.002699 201.50647 C 39.82971 236.874573 43.627592 240.500001 78.924315 240.500001 L 177.081083 240.500001 C 212.377806 240.500001 216.002699 236.875001 216.002699 201.50647 L 216.002699 128.5 L 216.002699 55.493531 C 216.002699 20.124997 212.377806 16.5 177.081083 16.5 L 78.924315 16.5 Z " id="blur" fill="url(#_lgradient_255)"/></g><path d=" M 78.924321 15.500025 C 43.627596 15.500025 39.829708 19.125398 40.002695 54.49353 L 40.002695 127.500014 L 40.002695 200.506441 C 39.829708 235.874573 43.627596 239.500004 78.924321 239.500004 L 177.081083 239.500004 C 212.377805 239.500004 216.002702 235.875035 216.002702 200.506441 L 216.002702 127.500014 L 216.002702 54.49353 C 216.002702 19.124994 212.377805 15.500025 177.081083 15.500025 L 78.924321 15.500025 Z " id="shape" fill="rgb(217,217,217)"/><g opacity="0.6"><path d=" M 78.924573 15.500025 C 43.627848 15.500025 39.829708 19.126032 40.002695 54.494165 L 40.002695 56.494138 C 39.829708 21.126005 43.627848 17.499998 78.924573 17.499998 L 177.080824 17.499998 C 212.377545 17.499998 216.002702 21.125601 216.002702 56.494138 L 216.002702 54.494165 C 216.002702 19.125571 212.377545 15.500025 177.080824 15.500025 L 78.924573 15.500025 Z " id="highlight" fill="rgb(255,255,255)"/></g><g opacity="0.1"><path d=" M 128.002691 15.500025 L 128.002691 239.500004 L 177.080824 239.500004 C 212.377531 239.500004 215.084421 235.863501 216.002702 200.506787 L 216.002702 127.500014 L 216.002702 54.493184 C 216.002702 19.124648 212.377531 15.500025 177.080824 15.500025 L 128.002691 15.500025 Z " id="right highlight" fill="rgb(255,255,255)"/></g><g opacity="0.2"><path d=" M 156.002703 239.500004 L 216.002702 179.500005 L 216.002702 201.983857 C 215.950394 235.97965 212.200019 239.500004 177.828601 239.500004 L 156.002703 239.500004 Z " id="clip" fill="rgb(255,255,255)"/></g></g><path d=" M 127.999996 62.946146 L 96.8873 94.05885 L 127.999996 125.171612 L 159.1127 94.05885 L 127.999996 62.946146 Z  M 161.941132 96.887325 L 130.828428 128.000029 L 161.941132 159.112733 L 193.053821 128.000029 L 161.941132 96.887325 Z  M 94.058868 96.887325 L 62.946179 128.000029 L 94.058868 159.112733 L 125.171565 128.000029 L 94.058868 96.887325 Z  M 127.999996 130.828446 L 96.8873 161.94115 L 127.999996 193.053854 L 159.1127 161.94115 L 127.999996 130.828446 Z " id="windows" fill="rgb(251,124,56)"/></g><foreignObject requiredExtensions="http://ns.gravit.io/"><gravitDesigner:gravitElementRef xmlns:gravitDesigner="http://ns.gravit.io/" xlink:href="#KyeJi7NZp483McpkYwDPhfJk6GxDDCbi"/></foreignObject></switch><gravitDesigner:gravitGraphicSource xmlns:gravitDesigner="http://ns.gravit.io/" id="KyeJi7NZp483McpkYwDPhfJk6GxDDCbi" version="1"><![CDATA[eMKcw41aZ8KTw6NGwpLDvSsbw5TDhX0aw43DgsKbwonCuMKIBWFIwoLCsARIGMK1w6ICwoQ3woTDtwrDvcO3Azlsw4PDkUjDm8Kzwqs9TXfCsMKbLFRmVcKaw7cqwrPCun9Zw71jw7VpVTrCocK/w7rCsMO6wq/DlcKnwp9+wrkNwoR1w5HClQ8jwqXDk0bDi8KAwpsVwo3Dr8KtPsK1dcOnf1jClW3Cs0zDuGkFO3LCph7DisKdcxTDv2fCmcO0w4PDssOqcXwtwqfDp8KTwpjDpcKSZwzDmcKkw6knwrt1w4I1YMKpwqdUN8KWKcObw6UVeA3DuCLDucOzwofCn1bDrE7CvMKoR8OZdsKBF1VHQAHDq8KzBMONw5YxHmXDmhkkZsK3wo0sXCdkw4fDgVRlwplyw51aRsK4wpnDqsKkwqTCk8K+VXVAw4HDsFVVcgY4wrfDtl1xwo3DtMOzTMOlacOjwo3Dm8K8ScKPw7o5BMKcw4vDrlXDji7CvMOkw5XCmsOLNjTCk8OYw5gEw5DDpFvChcOBOMKBw5nDj8OJcWDCtC3CrcODEXrCt8OmwrYFIxDDkmdrbsKOw5HDiE3CmsK+wqhKw41LIcKBQg0Xw5UBADnCtFrCmypowrFeRcKZISMJw57DncKawptjwp4lb8KqcBFTw6MHVW5mA8OZdsOcc8KpG2HDkVkpYcOHw60CWcKcw5vCqmzCq8Kjd8OfFR7CosOhwovDpFUVw63CnxLCtXwwwrDCusOIwq7DpAHCjHPCgHlqZMK3wqAgw6sDw60cw7fCp1pDSAvCusOvw6omecOpXw3CvA1EDz7DngIawr3Dr8OGAsOTwpgQw4nDpQLCmBFxHXDCpSfCtS5jdcOqwqtcw7oQZsKBw4DDm0nDnsOtw4w1wqoBw5TCqT3CkyNxCkkOwr1swoTCusOdwqzDr8OWw5wkwqvDnWvCmG/CjsKJHsKSw4/ChsKgw5DDmMKAwrhvDsOqdCjDkBTDjXF0w63DlMO0wprCqHgawonDr8OWw5wcw7Msw7nDs8OPH1bCtR/CtGPCu8O6wpR3WXbDu8Okw6RuVMOUw5ckX8KewrZ1wrDCvMKBP8OiOMKJQjjCgmEAworCkDDCgn4AwpbDr8KvDX/DhDASw4RAAsOACRxcwr4/w7xIYMOYR8KQRGAMwoMgDAZJfFHCmzsXw78OMBDDhMOgZV/Dv8ObwrRFwrnDugR8woTClsO3wpkzw7nDlx08w4Mww45bw6HDs8OQW3gGccKWKS/Dj8KuOsOKw4XCjhXDvcODT8OXw40BP19Hw7pFS8OgZMKNw7/Dq8KHw49Cw6fCosO2w7zDulHDrDzCrD7DgR/DicObFw58w77DgsKxw6vCg8OMwr3CinRte8KbdsOJVsKfwpDDny7Ds8OrYsOQfy8jLsK7wqM6W8OLQ2wmwqvCiHXCjsKAD8OyVRNjw7nDgVfDusOYWsO9wrrDiMO6QcKwW8K4ZHXDmMOrwqJvwpPCtcKhw5XDocK4wqFRw4dTw7fDhMK4DsOtwp7CmkBXAlbDjxvDvmMSal1SHSgqY3fDj3nCoE8NEMKdwrcuEMKcw4zDtcO+ZMKrw7Qhw4vCp3N6BEByfQrDmXtKwqHDm8K/d2p4wpfCvMKmFEUxwqFaMwTDt8Kawp00M3nDiBnCicKFc8KYZMOrw4hmw4rDlsOTwowdwr0TwovDjGlaw6zCnlIwwosHw6oFwqLCisO0wq3CqsKrw67Dl8Osw5zDjwQQw60Xw7bDkMK4w4sQwopdwr/CjwsAwpQZH2lbV8Kbw4VXwrkqXMODwq9ww7fDrcK8wqfDohbCpk8YwpYfwrFKYsKlacKXw4ITwrTDjcOXw7ElwqjDrsOWw5zCtsOQw697wopVw68Awrk5wobCpsKoVH1WwpXDgzzCqV3DiGTDpF1bQSXCicOXYwnDmcOEw6R5w6RlwrBbwoN3az47w6YuecKjw4bCg8K+w75Cw5XCiCjChVjDrxDDj8OKw40SAcOJYgBZeMOdwqRNw5jDjxvCgy3DrsK7WkNMw7oieTfCsFDCsQcDw7ksw5zChnPCssK7aMObZsOTUizCjsKMIwnCrcOHwq44ZSUqMsOPwrBdw6vCuQpfwroXA2/CqsKGBx/Dm8K9w55wTsKpa8KEF2LDu8OQwpxHwq3CmlE3FMOFXcKIwoU6w7Qqwoc/woTCmTrDmcKMw4zDggF4FMOkesKNQsOycGjCkixsI8KUw5sXwoIBw53CrcK5ScO+wp3DvMO7S8KYPzvDpiHDuVJXY8OJHhUPDWZuwqfDqDhXwprCgsONw7Z2w4DCksOscsKCwoDCuzXCnx3Ds8KcfMOvJCHDoCN6w4cmAF1ZB8OFbiTDtMKVw6EfQXRBMw4DIABhIAQRIMO8w6FHCMO4wojDnBDCjsOBCMKILlzChcK8w7JQEzleMcK8ZSHDsMOPY8Khf8OGPMOgw4fDp8O9AygJwqAoCMK9wpt5HgjDrsOOQsKHNlA5w5ZJwqN8e3DCklzDtgMOdcOOwpvDvsOkw6s8w6zDpMOwMws9w5vCtcK8w7XDncO2w5HCpnPDlsOVw6xtfBnCrsKXwqU/wpIwwo7DgTB5JXUMB8Kfw5cSL8K7TcK1w4nDjG0kwolgw5fDrMO4S8KTKsKuECtuwqTChMKbwoJfw73DusKvwrIYw5TCncK5I8KPwp7Cj8Kbw5LClsOBdEA7c8OTwpfCjlnDjSo4w7DDmcK3wrAYesKBWMK4OjAVwq3CgMKYFMOKwrnCkwfDsVTDrkrDjcKDT8O7w4bDvgYWw4vDksOuwrTDtyzCksKHJ8KZw7AzwpfDrcK7TMKiKyLCicOow5wSKMO2w7dYDDLCtsOZWMOTDMKgw5jDnMKwwqMgUU86C3bDmGPDgcKGw7lpw4jCv8KBw4XCpmbCp8K2w7ABw6LDolwXQsKdakl2w68IwrrCn1VVw6bDjFDDsw0sZk3DuMOBw4dqT8OQe2rCrcOZwojCsm3DgEvCoxtSw4jCgcK9wobDkcOfw4BibBsew5drwo7DrUcSwosaMcOzacKwwptlw5jDkMKgwoZFwoRCwr3Dr8OqM2nDkcODH8KywpjDnFYBRsOOBcOFwppWLSDDqwjDisOgwoEVBiltGMKdw5/Dvx7CiyXCjiHDmMKywqtAccKDwrt0w5PDlMOiwrTDiXnDrzJkwrzCpMOpw4zDsA0sJhvDlXZQw70jw6MGwpXCjcOxw4E2w5LDlQNGGXhEV37DncK3w58pwotdUcO7wpbDg8Ogd3PDmH/CmsKaPsO8IVUKP8O8w7LCtGrCnsKuw4shCAoiEMKKwpIIShAAQXx4WgXDo8Oyw6RHw6AjwoARIEICOAjDggDCgSPDoMO1w5HDtHTCtRPCgEEIXT5eJ8O+wrTCqCrCr8Kjw4tnd8O5w73DtMK6wqXCp8OVMlbDnCQWw6UQwozDgsOQwrLCscO7w7TCj8K3wrV+V8OiZSLDuAfCs8KuwrTDuMK0wqrCr8ObRcKXKMOhV8KyRGDCnMKAQMKYw7jDtcKlSmwKwpXDkMKKw4xEw6B8w4/CnyPClTETw5/DnMOuwr3CjsKvecO1w6TDpcO/Cj/Cg8OkRxwFUBhdfERiEMKKYMOPwqvDmWrDg8KYwo1HJcK2wqtiIMKNHcOawonCn8K3Hm/DrgTDgMK3w6rDo3sZw7rCt8ONbsOhwoTCoyxwQFrDusO1w77DoipEw4jDuTwpw5TCnDIpOsKaT8Krw7c3wrs5JiM4B8KEE03CllPDlTklwqrCoMKbwrlgNnbDk8KBXizCrMOew5/DrMK6w5EsdVEdwrAWEMKwwp4rV8Kyw4NgwoUkwq0ZEzvCtsO4w7x7w40uY8KeJVpIwrokC8Kcc8OVDBQtw5DColpbw7oWwrfCoiPDisKsw57Dn8OsGl7DjsOUXhnDkcKOwpIKCsKAwp7CjkBHw6gDdcKmWCzCjVx/w7XDvmbClz7DiQ5rwoBxw517OsKxLhrCl1zCp8Klwo0bw5FgC8KZbDzCnxvDr2l2N1TCjMKvecK4IQt7cMKkEzJNW2Bjw7JHwqnDr8ORblDCnznDrT3DjcKuw5wFw4zCjMK1w7k6wphBwphNZMK3FCPCpsKpwrbCpsKFwovCmzENf8Kvw5nChWVKdMKVIcKZcAAqVAvDhnbCgcOQWkfDrWJNFMOeZcOyw6rDvcONbsKSwonDtMKOw5LDth7Cqhd7wojClEzCjMOiTsOhYcKfeMO5XsOqwrJyw7UdNsK7S8KRWV7Cg8O/b8OXwpXDkMKyw5DDvcO1w5p8wpY5woTDp0EzCMK1w60gw6NJZsKxAjIrKiXCuMOaTg7Dq8OmwqHDucK8QFwac03DrQI9R8KhwqLChcO2NAIgwrgXw6XDpsK+VRvDvX3DjcOnDUbDvmkXwr/ChlhhTMKhIWvCuxjDncOzRcKyRjvDnMOABMObUhwowqLCkyFHwr8HPzfClsO4bcOewoXDtcOew5Usw5zDoVNtwovDsMKBwphoQy9wwqZvfgPDvBTCoBoPw6bDlMOgw4rCjsOCB8K1w47DqUDCtWTDoMOSwqvChcOew6Z5w7ENw7ALdyQHwq7Dl14aZ3zDqcKiw5FeTg55TMOoeXXDrgrDp8KEfgPDvMKEGFrCn8OiDkPCjsOqw6wVw7DDhS50w4HCu8OMw5PCsT5iw5JlGsO/EH7DncKDwo/Dl8ODJR3CsnDDl8KMRSTDr8KNA8OhwrrCvcKMwpfCsUrCpyArwp43f13CosO3w7HDs8KJw7/CksO0wq0Twq7DvsOkw4vCncKlPMO4cH/DvcKlw6lPw63CtS/Dj0TCrjIoIU5kIkUrHncDw6TDohnCu8K0wqHClxJ2OhLCmH9PwpjCgcO8w6rCmcKIwr0lS8OTPsKpw7bClMKEJ8OAw6FQw5oJw48Cd8KyDjLCpcOhBsOeaFHDusO2TDzCq1/CnMKJw64xw7TDmBdVJRDCkg4gw7XCg8KRw4ZRwq7DsQxEN3zDm0tkXjkiFMOYb8OBwqXDtcOcwovCqsKbwoHDtlZ5YyDDksKPMykoZ0M/wo5SbsKCQAMjOnPDssOGcSTDszNmw513dTPDsFnDssKqaj4vw6AqH1QBaMOEw6xbEF82wqJfXMK/UsO4wp3CgDLCk8KsWBzCucKuwoXDpsK5J8KiFnDClW9Uw50Qw5E8GMKYGcOdwphSw5vDisOcwpFVOcKfNsOtLDk8wrkYWFnCu8KTw5fCmm/DgRXDq8KvBn4+wqMew5xeZgxpwojDmsK5wpctwqM1L8KKw5lSIsK7wpYJdx0PGWzCkw9nw5TDsMOqw7bCm8KBwo9nVMODwopFTMO0Gk5cw6gGIk8cwrDDiMK7wozCm8Knw4TDnMOKw5DDs8KJezPDsHs5wqPCojjCjMKyw6XDlcK+BS3DtsKnwoPDtsKfw5zCiADDt8K7WBLDusOcFMKBw6TCv3UjEsOpw4jClsOZc8KDSwg1wp9wUWrCjsOtwokVNwoOwotUw6JGD8Ocw5A2wq0iwqjDu8OKAcOswrhCw4jCjVEyw7FswpjDm8OcwoInw57DjsO2w6/DowbCtMOZbcK+SAfCg8Ocw4rCuAjCoMKLw5M1w6bDgAzDmDHCkcKHwobDo8KIMcO0w43CqcKQb2l0wpN7PMKEw4YKVMOhHcKbYiHCi1RWccOZw5FIEVoZBhfCnQ3DshXDtMKafsKPcsKWIMKdIXHDjSlbMXdtw4XCsMKrw5rDhzgdw4IBF8KLDsObw7DCnsOJw5DDsMOVw4MLeHt4wpnCpcKKwq/DgynDn2c4ZkzDvFQbwpY7wp02w4gmwrEqwrPCk8Kew7HCpXRjwqzChsOBH8OWwo5UX8O6w57CssKeSsOjBcOCZj0AacOQwqbDncOJPMOpZsKuR8OvXsOlEsOoLS7CicOLwprDj8O1wpMzRDtUHyXCiMOrYMKZwrjCkMKOA8KYOxDCo8KgwrfCuCzDvxjClyUJwoXCqsKdwobCqMKfBiwawqQuKsOuXRrCpTUOw54QCMO1w7zDh8Kowptjwr4XXMOWV0zDvsOtwqvDqMO8M24qw79KdB7CgxrDlWrDpsKwETfDqBZhZ8KYwqApBmbClAvDhThSQHcPw6jCrMOXZx7DmcKCQcOlZMKSKsKqBFopwoEEbDl+wpvDtMKsw4wEw59Qwrg+w7bCjV0zOcKKwrvCrcO0cm/DtRs1IMOCwqbDji1hwrB0Tk3CusK1w73CpnB9woBGwp7Ch8KBw64Hwqp8KMK3w6HDqVw6w57DtsKyw5lywqw0w6wpw6HDqMKPD8KFa8O9CsKNw5vDmcO6WMK4wrrCrsKaNBMRwpNKwoDCuVPDnsKVbcOLw7Mtw5RROMK7c8Kac3XDj8OLUcO6wqJww70Kw7bDj17Ch8KMwp3CmMOtN8OewqbDm27DscKuJ8KsC8ObFMKhw4fCkzodZcOfwoB9ORs8w5dXwrBuaMOSY2R3GsOgwpVYwoNnwprDo8KGVUw9w583wr4Hw7txeyHDvMK9w6seBMKSw6wTw7liVAfDokjDsMOOcQcVGsK7UcK+wqvDgsO1XMK0bXHDuTrDpMO+w7wqw7bDvxdyw7TCkMKLWkEiwq0XQ8KBw4Zgw6dLwqkVwrhHS8KVw6jDjQIGPUAONULDjg/DtgAvwoxJB3DDhcKuW0/DjsK6UMOnw5g7V8K+KcK/D3LCtHFMwr9IUi7Dj8KSw77CjDPDhcO6w4LCt8OHwpA4woN+wp0Fw6d5woM2cHjCrMKRw5c0wopJI37ClcOTw7XDs8Kpw5nDuQYOw4PDjcKaw6Qywo/Dn2BmEcKcw7FaIjrDl8OXXsOlKkl5wpPDiTDDkifCgWzDpWzCjnDCkcOUw5oEfMKIwpAZw4EadyDCs0LCl8KeC07Dj07DlMO+LMK/ZMKywp0jw7gXWxd4LQ7ChE7CnU0HFMOnw4MJJBDCnD/DksK1c8OwwqXDpEAfX8OKYDR4w4XDl198woTCuFlcw77CpUnCjMOfwpMYw7l8wqEMwqLDv1YOX8KqC1DDgMO7wpPDkcKpwr1qBcKxw6FSIcKLM0tpN2fDkkbDsB9yeMKPw7vCicOTwrvDsSFyDwgqwoEiQsOuJ8OOwq40wr9uwqnCjVXDn8Oaw4jDv8Ksw7vCncKyw4xiw5dpw6Miw7/DsRJfw7x2w7p8GcO0wrzDhQgYOcO9CG7CmD3DpcOseGrDgxbCglzCsH7DmETDvcOOwqnCrMOow4XCvW5xKcKLLsO3w65ww7N7Py88w6/ChcK+wq7Dg8OXfFrDvcOywrTDusOHw63CosO6OnLCu8Kjw77CjMOMwqc7NMKfwq7DmMK8w57CmMO/w7TCtMOaE0vDmcOZdcKzwrfDpMO8bcOqD8K3wp/DjsOGLU7CrRrDoFDCkcKiw6c5woZpemN1aSMawqoOwrTCqsO5dMOFw4fDk8OKw4ZyQT3Dpn3DsCg9woXDpsKmO8OmUwYwwr5ASUvCo8KdwrjCjB7DjUhuNDkfZnfDqcObw5rCmXrCuh4Ub8KkGcOFMTATwrDClDp1BsOJwoACMMOhw5MDwp3DhcOdOFsAwqXDn8KlC8KMw4jDlcO0N2tbeyPDg8Omwr1qwp9VcMODb8K7w7XDiS4PVMKLwqXDqjnDjcK8FH/CusOCw7HDqcKOw4fCpzsgwp/DniDDssOpBsOJwqdrUjzDvStZAQMQwrlkBcKAQ8OXwqxAP2JLVsKgIMKBYsOAw7LDtMKqw7jCisK9wp13C8OQw6TChBwiwpgENArCqcKUw7QTwo12w60WBcK6FsOSUcOqw6wLN8KLPifDim0+W8KQwoLClFjCuiZYasKWw7LDpw0HOAfCqsKKw6gEw4PDrMORA8KfVsK/LsKJw7Etw7Enw7dAwqXCtlgXwqQPXhROwofDs8OSQTTClcKNOsOjJQwODS5WazvDhgDCni3Dh8Kkwr3DhyAQKcO+w7nCqH8jw63CosO9WUzDiRwjBxXDr8KRw7YCwqPCvMOJw5AGQB7Cg3hiwobCu8O0bcOtBsOSwqJHaSwuTUTDlcKhwqwCw6nCksKkNMObw4h9NC7Do8OjZCPCtlLChXdpB23ChcKvwqxNFmdfw6chw4vCmzXCrMKiwrbCncKRdwpgHcOsAsOzLsK2w5LCpMOfVcO8I8KGwolbAxtkNcKQJ8Osw6RYJ8OYwqV2Alodw6LDlD1uw6Evw6M/JlvCvyvDg1M9dMK4YMKGwqDDk8OMJCQyPcKRYB7ClMKcwrpvwo/Dv8Oow4zCnMOqw70mw74HQ8OBw4JNQ8OuOcKMTcOSwow1bQceBXJkw5JEwqt6wqnCu8OHACQ3w4xzOcO9RlobRFUuw7zDlsKpw6ZCOSrDpMOmRB9YaMKawrMZw7TDpgM2w53CpW9rwrvCv8KJwr/CukVmw5PDj8KqDW0basOWa0YIwotcM8OZwrBdMcKWP17DrsOSUCMyX8KJwr/DiW99e1xLKDnDs8KUYsO1UXTCkMKNwqNuIMKECW55wrTDuMKuw6LDr8KMwoUnwoTCpRkHVAhSw5LCsMO0w4fDmMKYw7HDisO5RMK4My3CgV/DhsK/cg7ClsKkw4QDNgLDilJyGH3DjcOsJsKZwodrAGvChAo4fHvDvD/Ds39yw7zDgsKLw5DCmhvCqMKJw7YJWyFnD3EYw6ACGMKcw4JJElYFw7Fxw7/ClsO/w61gw7oiwoLDvRnDnjPCocKEwqrCiMOMw6BywqJLw6fDvWk7w6oqwrM9RjpTd2/DuT/CtcOUwoR9w6TDvyMXGxcfw4XCtcOeXMOvwp1dKwjCoSBqbGrCtcKWLHnDuFvDvi9/wrM2PyBRPw3DlU5vOsKxwovDkcOTwrxFwrPCtB7DmsOKQ8OWwq3Cp3xXw7EvQXUewqh8PV04w7cSKcOQw4R7wqIowqp0FCjCicOVwq7Dgy/Do096FV5lwowYwoFwwopvwopkB3PCmSHDpDbCvMOBwpTCjMO3w4hrw7x/w77Dk8OKw4t/YsOJc30zw4TCuVcMw5fDgsOxT8KoKsOBDyDChHxAwrF3dEbCvy0iwrPDpHpRcC3CkcO+SU15w78vCQzDgQHClCDCvlZkKsOiNk0cBsK3G8K6w5zDsRHCrMKdM8K6w4cAEj/Du2Nyw5zCiQ9FZsKBdxZiSgw4w4QYNhbDnDRPw5LCrkLDrcKhRsOcJsK2wrxbwpHDucODw7UPwoHDm31Bw416RzfDpcKFYHc7w7NAwqtxwrXCrsKNwrHDg8Kmw7XCoF07wofDlScIw4XCrl3DhMOnw5/DhcO1w78Bwq5BPMK7w6lXSsOvZcO8ZsOMSzQUJ8O0w78Gwq5+w70/wqUnwqMG]]></gravitDesigner:gravitGraphicSource></svg>

<svg xmlns="http://www.w3.org/2000/svg" xmlns:xlink="http://www.w3.org/1999/xlink" style="isolation:isolate" width="256" height="256"><switch><g><path d="M78.924 15.5c-35.296 0-39.094 3.625-38.921 38.994v146.012c-.173 35.369 3.625 38.994 38.921 38.994h98.157c35.297 0 38.922-3.625 38.922-38.994V54.494c0-35.369-3.625-38.994-38.922-38.994H78.924z" fill="none" vector-effect="non-scaling-stroke" stroke-width="4" stroke="#000" opacity=".2"/><defs><filter id="a" x="-200%" y="-200%" width="400%" height="400%" filterUnits="objectBoundingBox" color-interpolation-filters="sRGB"><feGaussianBlur xmlns="http://www.w3.org/2000/svg" stdDeviation="2.12"/></filter></defs><path d="M78.924 16.5c-35.296 0-39.094 3.625-38.921 38.994v146.012c-.173 35.369 3.625 38.994 38.921 38.994h98.157c35.297 0 38.003-3.637 38.922-38.994V55.494c0-35.369-3.625-38.994-38.922-38.994H78.924z" opacity=".1" filter="url(#a)"/><defs><filter id="b" x="-200%" y="-200%" width="400%" height="400%" filterUnits="objectBoundingBox" color-interpolation-filters="sRGB"><feGaussianBlur xmlns="http://www.w3.org/2000/svg" stdDeviation="8.48"/></filter></defs><g opacity=".3" filter="url(#b)"><linearGradient id="c" x1="-.068" y1=".031" x2=".954" y2="1.053" gradientTransform="matrix(176.0054 0 0 224 39.997 16.5)" gradientUnits="userSpaceOnUse"><stop offset="0%" stop-opacity=".588"/><stop offset="88%" stop-opacity="0"/><stop offset="100%"/></linearGradient><path d="M78.924 16.5c-35.296 0-39.094 3.625-38.921 38.994v146.012c-.173 35.369 3.625 38.994 38.921 38.994h98.157c35.297 0 38.922-3.625 38.922-38.994V55.494c0-35.369-3.625-38.994-38.922-38.994H78.924z" fill="url(#c)"/></g><path d="M78.924 15.5c-35.296 0-39.094 3.625-38.921 38.994v146.012c-.173 35.369 3.625 38.994 38.921 38.994h98.157c35.297 0 38.922-3.625 38.922-38.994V54.494c0-35.369-3.625-38.994-38.922-38.994H78.924z" fill="#D9D9D9"/><path d="M78.925 15.5c-35.297 0-39.095 3.626-38.922 38.994v2C39.83 21.126 43.628 17.5 78.925 17.5h98.156c35.297 0 38.922 3.626 38.922 38.994v-2c0-35.368-3.625-38.994-38.922-38.994H78.925z" fill="#FFF" opacity=".6"/><path d="M128.003 15.5v224h49.078c35.297 0 38.003-3.636 38.922-38.993V54.493c0-35.368-3.625-38.993-38.922-38.993h-49.078z" fill="#FFF" opacity=".1"/><path d="M156.003 239.5l60-60v22.484c-.053 33.996-3.803 37.516-38.174 37.516h-21.826z" fill="#FFF" opacity=".2"/><path d="M128 62.946L96.887 94.06 128 125.172l31.113-31.113L128 62.946zm33.941 33.941L130.828 128l31.113 31.113L193.054 128 161.94 96.887zm-67.882 0L62.946 128l31.113 31.113L125.172 128 94.059 96.887zM128 130.828l-31.113 31.113L128 193.054l31.113-31.113L128 130.828z" fill="#FB7C38"/></g><foreignObject requiredExtensions="http://ns.gravit.io/"> </foreignObject></switch> </svg>
